svgs/regular/bandage.svg

<svg xmlns="http://www.w3.org/2000/svg" viewBox="0 0 640 512"><!--! Font Awesome Pro 6.6.0 by @fontawesome - https://fontawesome.com License - https://fontawesome.com/license (Commercial License) Copyright 2024 Fonticons, Inc. --><path d="M448 144l0 224 112 0c17.7 0 32-14.3 32-32l0-160c0-17.7-14.3-32-32-32l-112 0zM192 96l256 0 112 0c44.2 0 80 35.8 80 80l0 160c0 44.2-35.8 80-80 80l-112 0-256 0L80 416c-44.2 0-80-35.8-80-80L0 176c0-44.2 35.8-80 80-80l112 0zm0 272l0-224L80 144c-17.7 0-32 14.3-32 32l0 160c0 17.7 14.3 32 32 32l112 0zm80-136a24 24 0 1 0 0-48 24 24 0 1 0 0 48zm120-24a24 24 0 1 0 -48 0 24 24 0 1 0 48 0zM272 328a24 24 0 1 0 0-48 24 24 0 1 0 0 48zm120-24a24 24 0 1 0 -48 0 24 24 0 1 0 48 0z"/></svg>

<svg xmlns="http://www.w3.org/2000/svg" viewBox="0 0 640 512"><!--! Font Awesome Pro 6.4.2 by @fontawesome - https://fontawesome.com License - https://fontawesome.com/license (Commercial License) Copyright 2023 Fonticons, Inc. --><path d="M448 144V368H560c17.7 0 32-14.3 32-32V176c0-17.7-14.3-32-32-32H448zM192 96H448 560c44.2 0 80 35.8 80 80V336c0 44.2-35.8 80-80 80H448 192 80c-44.2 0-80-35.8-80-80V176c0-44.2 35.8-80 80-80H192zm0 272V144H80c-17.7 0-32 14.3-32 32V336c0 17.7 14.3 32 32 32H192zm80-136a24 24 0 1 0 0-48 24 24 0 1 0 0 48zm120-24a24 24 0 1 0 -48 0 24 24 0 1 0 48 0zM272 328a24 24 0 1 0 0-48 24 24 0 1 0 0 48zm120-24a24 24 0 1 0 -48 0 24 24 0 1 0 48 0z"/></svg>
